X: 14688
T: Gan Ainm
R: jig
M: 6/8
K: Edorian
|:BEE BEE|BEE EFA|BEE BEE|FDD DFA|
BEE BEE|BEE EFA|Bcd AdA|FDD DFA:|
|:B2e ede|fdd cBA|B2e ede|efe d2A|
B2e ede|fdd cBA|Bcd AdA|FAF E3:|

